Hatter-kde/actions/16/align-vertical-bottom-out.svg

<?xml version="1.0" encoding="UTF-8"?>
<svg viewBox="0 0 16 16" xmlns="http://www.w3.org/2000/svg">
 <defs id="defs3051">
  <style id="current-color-scheme" type="text/css">.ColorScheme-Text {
        color:#363636;
      }</style>
 </defs>
 <path class="ColorScheme-Text" d="m2 2v7h5v-7h-5zm1 1h3v5h-3v-5zm6 1v5h5v-5h-5zm1 1h3v3h-3v-3zm-8 5v1h12v-1h-12zm7 2v2h5v-2h-5z" fill="currentColor"/>
</svg>

<svg xmlns="http://www.w3.org/2000/svg" viewBox="0 0 16 16">
  <defs id="defs3051">
    <style type="text/css" id="current-color-scheme">
      .ColorScheme-Text {
        color:#363636;
      }
      </style>
  </defs>
 <path style="fill:currentColor;fill-opacity:1;stroke:none" 
       d="M 2 2 L 2 9 L 7 9 L 7 2 L 2 2 z M 3 3 L 6 3 L 6 8 L 3 8 L 3 3 z M 9 4 L 9 9 L 14 9 L 14 4 L 9 4 z M 10 5 L 13 5 L 13 8 L 10 8 L 10 5 z M 2 10 L 2 11 L 14 11 L 14 10 L 2 10 z M 9 12 L 9 14 L 14 14 L 14 12 L 9 12 z "
     class="ColorScheme-Text"
     />
</svg>
